X: 305536
T: BRITISH RECRUIT
C:
%R: _
B: Elias Howe "The Musician's Companion" Part 3 1844 p.54 #2
S: http://imslp.org/wiki/The_Musician's_Companion_(Howe,_Elias)
S: https://archive.org/stream/firstthirdpartof03howe/#page/66/mode/1up
Z: 2015 John Chambers <jc:trillian.mit.edu>
N: Doubled length of notes in bar 5.
M: 2/4
L: 1/16
K: Bb
% - - - - - - - - - - - - - - - - - - - - - - - - -
|:\
B2dB f2f2 | e2e2 d4 | (dcBA) .B2.c2 | (BAGF) .G2.A2 |\
B2b2 A2a2 | G2g2 dcBA | f2B2 dcBA | B2d2B2 z2 :|
|:\
f2f2 (edc=B) | .c2.d2 .e2z2 | e2e2 dcBA | .B2.c2 .d2z2 |\
B2B2 B2(dB) | f2f2 f2bg | fdcB A2c2 | B4 B,4 :|
% - - - - - - - - - - - - - - - - - - - - - - - - -


